!!!OTL-incipit: ICH WILL EUCH' MAL SINGEN EIN LIEDELEIN EIN NEUES
!!!ARE: Europa, Mitteleuropa, Deutschland, Bayern
!!!SCT: Z0123
!!!YEM: Copyright 1995, estate of Helmut Schaffrath.
**kern	**text
*ICvox	*
*M3/4	*
*k[f#]	*
*G:	*
!LO:TX:a:t=Baiern.	!
{8d	Jch
=1	=1
4g	will
4g	euch
4d	'mal
=2	=2
4g	ſin-
4g	-gen
4d	ein
=3	=3
4g	Lied-
4g	-lein
4a	ein
=4	=4
4b/	neu-
4b/}	-es,
{4g	vom
=5	=5
4e	A-
4e	-dam
4g	und
=6	=6
4g	E-
4f#	-va
4e	und
=7	=7
4e	vom
4d	Pa-
4d	-ra-
=8	=8
4d	-dei-
4d}	-s.
{8bL	Tral-
8ddJ	.
=9	=9
8ddL	-la-
8ccJ	.
8ccL	-la-
8bJ	.
8ccL	-la-
8ddJ	.
=10	=10
2cc	-la,
8aL	tral-
8ccJ	.
=11	=11
8ccL	-la-
8bJ	.
8bL	-la-
8aJ	.
8bL	-la-
8ccJ	.
=12	=12
2b/}	-la,
{4g	vom
=13	=13
4b/	A-
4a	-dam
4a	und
=14	=14
4cc	E-
4a	-va
4f#	und
=15	=15
4a	vom
4g	Pa-
4f#	-ra-
=16	=16
2g	-deis.
8r}	.
==	==
!!!AGN: Erzaehlung, lustige Romanze
!!!ONB: ESAC (Essen Associative Code) Database: ZUCCAL
!!!AMT: simple triple
!!!AIN: vox
!!!EED: Helmut Schaffrath
!!!EEV: 1.0
!!!GTL: II. Erzahlungen, lustige Romanzen, Kinder-Lieder und episch-lyrische Volks-Lieder.
!!!URL-scan: https://www.digitale-sammlungen.de/de/view/bsb11160571?page=233
!!!ENC: Anna Maria Matuszewska
!!!EEV: 2025/01/27
*-	*-
